X: 373
T: A Sunny Day In April
R: reel
M: 4/4
K: Dmajor
|:BGAG Bdeg|BGAG DEG2|BGAG EGDG|dedA fdA2|
BGAG DGBG|AGdG fdAd|edfd Bdgd|edBA BGG2:|
|:fded cB=cd|e2gf dcA2|BGAG DFAB|cABG A2Bc|
defd dBAB|EGBd edfd|Bdgd edBA|BGG2 z4:|

